Numix/22/emotes/face-embarassed.svg

<?xml version="1.0" encoding="UTF-8" standalone="no"?>
<svg
   xmlns:dc="http://purl.org/dc/elements/1.1/"
   xmlns:cc="http://creativecommons.org/ns#"
   xmlns:rdf="http://www.w3.org/1999/02/22-rdf-syntax-ns#"
   xmlns:svg="http://www.w3.org/2000/svg"
   xmlns="http://www.w3.org/2000/svg"
   xmlns:sodipodi="http://sodipodi.sourceforge.net/DTD/sodipodi-0.dtd"
   xmlns:inkscape="http://www.inkscape.org/namespaces/inkscape"
   width="22px"
   height="22px"
   viewBox="0 0 18 18"
   version="1.1"
   id="svg1484"
   inkscape:version="0.91 r"
   sodipodi:docname="face-embarassed.svg">
  <metadata
     id="metadata1513">
    <rdf:RDF>
      <cc:Work
         rdf:about="">
        <dc:format>image/svg+xml</dc:format>
        <dc:type
           rdf:resource="http://purl.org/dc/dcmitype/StillImage" />
      </cc:Work>
    </rdf:RDF>
  </metadata>
  <sodipodi:namedview
     pagecolor="#ffffff"
     bordercolor="#666666"
     borderopacity="1"
     objecttolerance="10"
     gridtolerance="10"
     guidetolerance="10"
     inkscape:pageopacity="0"
     inkscape:pageshadow="2"
     inkscape:window-width="640"
     inkscape:window-height="480"
     id="namedview1511" />
  <defs
     id="defs1486">
    <radialGradient
       id="radial0"
       gradientUnits="userSpaceOnUse"
       cx="15"
       cy="28"
       fx="15"
       fy="28"
       r="2"
       gradientTransform="matrix(0.75,0,0,0.75,-5.625,-10.5)">
      <stop
         offset="0"
         style="stop-color:rgb(100%,21.176471%,21.176471%);stop-opacity:1;"
         id="stop1489" />
      <stop
         offset="1"
         style="stop-color:rgb(100%,85.490196%,36.862745%);stop-opacity:1;"
         id="stop1491" />
    </radialGradient>
    <radialGradient
       id="radial1"
       gradientUnits="userSpaceOnUse"
       cx="24"
       cy="28"
       fx="24"
       fy="28"
       r="2"
       gradientTransform="matrix(0.75,0,0,0.75,-5.625,-10.5)">
      <stop
         offset="0"
         style="stop-color:rgb(100%,21.176471%,21.176471%);stop-opacity:1;"
         id="stop1494" />
      <stop
         offset="1"
         style="stop-color:rgb(100%,85.490196%,36.862745%);stop-opacity:1;"
         id="stop1496" />
    </radialGradient>
  </defs>
  <g
     id="surface1">
    <path
       style=" stroke:none;fill-rule:nonzero;fill:rgb(100%,85.490196%,36.862745%);fill-opacity:1;"
       d="M 15.75 9 C 15.75 12.210938 12.726562 14.8125 9 14.8125 C 5.273438 14.8125 2.25 12.210938 2.25 9 C 2.25 5.789062 5.273438 3.1875 9 3.1875 C 12.726562 3.1875 15.75 5.789062 15.75 9 Z M 15.75 9 "
       id="path1499" />
    <path
       style=" stroke:none;fill-rule:nonzero;fill:rgb(39.607843%,39.607843%,39.607843%);fill-opacity:1;"
       d="M 7.6875 7.6875 C 7.6875 8.207031 7.269531 8.625 6.75 8.625 C 6.230469 8.625 5.8125 8.207031 5.8125 7.6875 C 5.8125 7.167969 6.230469 6.75 6.75 6.75 C 7.269531 6.75 7.6875 7.167969 7.6875 7.6875 Z M 7.6875 7.6875 "
       id="path1501" />
    <path
       style=" stroke:none;fill-rule:nonzero;fill:rgb(39.607843%,39.607843%,39.607843%);fill-opacity:1;"
       d="M 12.1875 7.6875 C 12.1875 8.207031 11.769531 8.625 11.25 8.625 C 10.730469 8.625 10.3125 8.207031 10.3125 7.6875 C 10.3125 7.167969 10.730469 6.75 11.25 6.75 C 11.769531 6.75 12.1875 7.167969 12.1875 7.6875 Z M 12.1875 7.6875 "
       id="path1503" />
    <path
       style=" stroke:none;fill-rule:nonzero;fill:rgb(39.607843%,39.607843%,39.607843%);fill-opacity:1;"
       d="M 9.75 11.625 C 9.75 12.039062 9.414062 12.375 9 12.375 C 8.585938 12.375 8.25 12.039062 8.25 11.625 C 8.25 11.210938 8.585938 10.875 9 10.875 C 9.414062 10.875 9.75 11.210938 9.75 11.625 Z M 9.75 11.625 "
       id="path1505" />
    <path
       style=" stroke:none;fill-rule:nonzero;fill:url(#radial0);"
       d="M 7.125 10.5 C 7.125 11.328125 6.453125 12 5.625 12 C 4.796875 12 4.125 11.328125 4.125 10.5 C 4.125 9.671875 4.796875 9 5.625 9 C 6.453125 9 7.125 9.671875 7.125 10.5 Z M 7.125 10.5 "
       id="path1507" />
    <path
       style=" stroke:none;fill-rule:nonzero;fill:url(#radial1);"
       d="M 13.875 10.5 C 13.875 11.328125 13.203125 12 12.375 12 C 11.546875 12 10.875 11.328125 10.875 10.5 C 10.875 9.671875 11.546875 9 12.375 9 C 13.203125 9 13.875 9.671875 13.875 10.5 Z M 13.875 10.5 "
       id="path1509" />
  </g>
</svg>

<svg xmlns="http://www.w3.org/2000/svg" width="22" height="22" viewBox="0 0 18 18" xmlns:xlink="http://www.w3.org/1999/xlink">
 <defs>
  <radialGradient id="radial0" gradientUnits="userSpaceOnUse" cx="15" cy="28" r="2" gradientTransform="matrix(0.75,0,0,0.75,-5.625,-10.5)">
   <stop style="stop-color:#ff3636;stop-opacity:1"/>
   <stop offset="1" style="stop-color:#ffd95d;stop-opacity:1"/>
  </radialGradient>
  <radialGradient id="radial1" gradientUnits="userSpaceOnUse" cx="24" cy="28" r="2" gradientTransform="matrix(0.75,0,0,0.75,-5.625,-10.5)" xlink:href="#radial0"/>
 </defs>
 <g>
  <path d="m 15.75 9 c 0 3.211 -3.02 5.813 -6.75 5.813 c -3.727 0 -6.75 -2.602 -6.75 -5.813 c 0 -3.211 3.02 -5.813 6.75 -5.813 c 3.727 0 6.75 2.602 6.75 5.813 m 0 0" style="fill:#ffd95d;fill-opacity:1;stroke:none;fill-rule:nonzero"/>
  <path d="m 7.688 7.688 c 0 0.52 -0.418 0.938 -0.938 0.938 c -0.52 0 -0.938 -0.418 -0.938 -0.938 c 0 -0.52 0.418 -0.938 0.938 -0.938 c 0.52 0 0.938 0.418 0.938 0.938 m 0 0" style="fill:#646464;fill-opacity:1;stroke:none;fill-rule:nonzero"/>
  <path d="m 12.188 7.688 c 0 0.52 -0.418 0.938 -0.938 0.938 c -0.52 0 -0.938 -0.418 -0.938 -0.938 c 0 -0.52 0.418 -0.938 0.938 -0.938 c 0.52 0 0.938 0.418 0.938 0.938 m 0 0" style="fill:#646464;fill-opacity:1;stroke:none;fill-rule:nonzero"/>
  <path d="m 9.75 11.625 c 0 0.414 -0.336 0.75 -0.75 0.75 c -0.414 0 -0.75 -0.336 -0.75 -0.75 c 0 -0.414 0.336 -0.75 0.75 -0.75 c 0.414 0 0.75 0.336 0.75 0.75 m 0 0" style="fill:#646464;fill-opacity:1;stroke:none;fill-rule:nonzero"/>
  <path d="m 7.125 10.5 c 0 0.828 -0.672 1.5 -1.5 1.5 c -0.828 0 -1.5 -0.672 -1.5 -1.5 c 0 -0.828 0.672 -1.5 1.5 -1.5 c 0.828 0 1.5 0.672 1.5 1.5 m 0 0" style="fill:url(#radial0);stroke:none;fill-rule:nonzero"/>
  <path d="m 13.875 10.5 c 0 0.828 -0.672 1.5 -1.5 1.5 c -0.828 0 -1.5 -0.672 -1.5 -1.5 c 0 -0.828 0.672 -1.5 1.5 -1.5 c 0.828 0 1.5 0.672 1.5 1.5 m 0 0" style="fill:url(#radial1);stroke:none;fill-rule:nonzero"/>
 </g>
</svg>
